public/img/casting-icon-1.svg

<svg width="49" height="49" viewBox="0 0 49 49" fill="none" xmlns="http://www.w3.org/2000/svg">
<g clip-path="url(#clip0)">
<path d="M48.3377 41.3324L48.3148 41.3094L48.3415 41.2749L47.6563 40.7007L42.8941 36.2754L42.6721 36.4936C42.6338 36.5418 42.593 36.5878 42.5496 36.6314C41.4624 37.6497 37.9788 40.5859 33.8866 40.6395C33.7985 40.6395 33.7143 40.6395 33.6262 40.6395C31.471 40.406 29.377 39.2499 27.2486 37.1099C23.7152 33.5574 19.7876 31.6357 15.5613 31.3678C15.4427 31.3678 15.324 31.3678 15.2091 31.3678C14.573 31.3082 13.9336 31.2903 13.2951 31.3142C6.92507 31.5783 2.1935 35.8467 0.585691 37.4928C0.252644 37.8105 0.0421131 38.0287 0.00383186 38.0746L0.0267997 38.0976L0 38.1282L0.658426 38.6948L5.42445 43.1201C5.42445 43.1201 5.50867 43.0321 5.64648 42.9019L5.76899 42.7641C6.85617 41.7496 10.3398 38.8135 14.4282 38.756C14.5163 38.756 14.6043 38.756 14.6923 38.756C16.8438 38.9896 18.9416 40.1418 21.07 42.2817C24.6034 45.8342 28.531 47.7598 32.7573 48.0239C32.8759 48.0239 32.9946 48.0239 33.1095 48.0239C33.7458 48.0803 34.3851 48.0969 35.0235 48.0737C41.3897 47.8134 46.1251 43.545 47.7329 41.8989C48.0659 41.5812 48.2765 41.3592 48.3148 41.3171" fill="url(#paint0_linear)"/>
<path d="M32.2483 1.15609C40.5859 1.15609 47.6335 7.94336 47.6335 15.9786C47.6335 20.5034 45.3826 25.9317 41.8913 29.7598L41.7918 29.8709L41.6463 29.8441C41.1733 29.7482 40.7552 29.4741 40.4787 29.0784C40.1799 29.3667 39.8047 29.5631 39.3976 29.6446C38.9905 29.726 38.5686 29.6889 38.1819 29.5378C37.8412 30.1924 37.711 30.9006 38.6221 31.1609C39.472 31.4021 40.6166 31.0882 41.4626 30.9619C43.3908 30.7526 45.3312 30.6771 47.2698 30.736C47.9436 30.7628 47.9436 31.8041 47.2698 31.7811C45.052 31.7434 42.8342 31.8573 40.6319 32.1218C39.7859 32.2443 38.7178 32.4127 37.8871 32.0184C36.486 31.3332 36.7387 30.1695 37.2823 29.0899C36.8612 28.8296 36.4056 28.5042 35.9156 28.152C37.2823 27.5548 39.0585 24.8828 40.2759 22.5477C41.1372 20.8977 42.8216 17.4027 42.634 15.6341C43.6829 16.3537 44.5059 16.9854 44.9309 17.8084C45.0546 17.049 45.1186 16.281 45.1223 15.5116C45.1223 9.14539 38.4537 4.86937 32.2291 4.86937C24.5193 4.86937 19.336 10.3704 19.336 15.5116C19.3368 16.2653 19.3957 17.0178 19.5121 17.7625C19.96 16.9509 20.7677 16.327 21.809 15.6188C21.7859 15.8738 21.7923 16.1308 21.8281 16.3844C21.8281 16.0398 21.8932 15.7834 22.0616 15.6762C22.0778 15.6642 22.096 15.6552 22.1152 15.6494C22.1697 15.6215 22.2301 15.607 22.2913 15.6073C23.1948 15.6073 25.1701 17.8314 26.797 20.9437C28.424 24.0559 29.2738 26.9998 28.8221 27.8343C28.7913 27.9002 28.7438 27.957 28.6843 27.9989C28.6274 28.0299 28.565 28.0494 28.5005 28.0563H28.4622H28.4278C28.4623 28.0563 28.4967 28.1023 28.5312 28.1176C26.663 29.4613 25.4074 30.4145 23.746 28.8564C23.4896 29.207 23.1503 29.4884 22.7584 29.6756L22.5823 29.7445L22.4598 29.6067C19.0527 25.7786 16.8516 20.4192 16.8516 15.9671C16.8516 7.92805 23.8953 1.14844 32.233 1.14844" fill="#5A2E91"/>
<path d="M42.0542 15.3164C42.1151 15.315 42.1755 15.3281 42.2303 15.3547L42.2877 15.3815C43.0534 15.8753 42.0236 19.0488 40.2206 22.5133C38.5745 25.6791 36.6949 27.976 35.8067 27.976H35.757C35.6931 27.9722 35.6313 27.9524 35.5771 27.9186C35.5165 27.8752 35.4678 27.8173 35.4354 27.7501C34.9799 26.9003 35.8182 23.922 37.4911 20.7638C39.164 17.6056 41.147 15.3547 42.0619 15.3547" fill="#5A2E91"/>
</g>
<defs>
<linearGradient id="paint0_linear" x1="24.1708" y1="31.304" x2="24.1724" y2="46.3687" gradientUnits="userSpaceOnUse">
<stop stop-color="#2A5BA6"/>
<stop offset="1" stop-color="#E2127E"/>
</linearGradient>
<clipPath id="clip0">
<rect width="49" height="49" fill="white"/>
</clipPath>
</defs>
</svg>

<svg width="49" height="49" fill="none" xmlns="http://www.w3.org/2000/svg"><g clip-path="url(#clip0)"><path d="M48.338 41.332l-.023-.023.027-.034-.686-.574-4.762-4.426-.222.219a1.59 1.59 0 01-.122.137c-1.088 1.019-4.571 3.955-8.663 4.008h-.26c-2.156-.233-4.25-1.39-6.378-3.53-3.534-3.552-7.461-5.473-11.688-5.741h-.352a14.645 14.645 0 00-1.914-.054c-6.37.264-11.101 4.533-12.71 6.179-.332.317-.543.536-.581.582l.023.023-.027.03.658.567 4.766 4.425s.085-.088.222-.218l.123-.138c1.087-1.014 4.57-3.95 8.66-4.008h.263c2.152.234 4.25 1.386 6.378 3.526 3.533 3.552 7.461 5.478 11.687 5.742h.352a15.36 15.36 0 001.914.05c6.367-.26 11.102-4.529 12.71-6.175.333-.318.544-.54.582-.582" fill="url(#paint0_linear)"/><path d="M32.248 1.156c8.338 0 15.386 6.787 15.386 14.823 0 4.524-2.251 9.953-5.743 13.78l-.1.112-.145-.027a1.88 1.88 0 01-1.167-.766 2.17 2.17 0 01-2.297.46c-.34.654-.471 1.363.44 1.623.85.241 1.995-.073 2.84-.2a41.996 41.996 0 015.808-.225c.674.027.674 1.068 0 1.045a48.722 48.722 0 00-6.638.34c-.846.123-1.914.292-2.745-.103-1.401-.685-1.148-1.849-.605-2.928-.42-.26-.876-.586-1.366-.938 1.366-.597 3.143-3.27 4.36-5.604.861-1.65 2.546-5.145 2.358-6.914 1.049.72 1.872 1.351 2.297 2.174.124-.759.188-1.527.191-2.296 0-6.367-6.668-10.643-12.893-10.643-7.71 0-12.893 5.501-12.893 10.643 0 .753.06 1.506.176 2.25.448-.811 1.256-1.435 2.297-2.143a3.33 3.33 0 00.02.765c0-.344.064-.6.233-.708a.175.175 0 01.053-.027.382.382 0 01.176-.042c.904 0 2.88 2.224 4.506 5.337 1.627 3.112 2.477 6.056 2.025 6.89a.418.418 0 01-.138.165.494.494 0 01-.184.057h-.072c.034 0 .069.046.103.062-1.868 1.343-3.124 2.297-4.785.738a2.628 2.628 0 01-.988.82l-.176.069-.122-.138c-3.407-3.828-5.608-9.188-5.608-13.64 0-8.039 7.043-14.819 15.381-14.819" fill="#5A2E91"/><path d="M42.054 15.316a.383.383 0 01.176.039l.058.027c.765.493-.264 3.667-2.067 7.131-1.646 3.166-3.526 5.463-4.414 5.463h-.05a.383.383 0 01-.18-.057.445.445 0 01-.142-.169c-.455-.85.383-3.828 2.056-6.986s3.656-5.41 4.57-5.41" fill="#5A2E91"/></g><defs><linearGradient id="paint0_linear" x1="24.171" y1="31.304" x2="24.172" y2="46.369" gradientUnits="userSpaceOnUse"><stop stop-color="#2A5BA6"/><stop offset="1" stop-color="#E2127E"/></linearGradient><clipPath id="clip0"><path fill="#fff" d="M0 0h49v49H0z"/></clipPath></defs></svg>
